;FLAVOR:Marlin
;TIME:3827
;Filament used: 2.14655m
;Layer height: 0.2
;MINX:80.253
;MINY:101.513
;MINZ:0.2
;MAXX:154.747
;MAXY:133.487
;MAXZ:36.2
;Generated with Cura_SteamEngine 5.2.1
M140 S80
M105
M190 S80
M104 S240
M105
M109 S240
M82 ;absolute extrusion mode
; Ender 3 Custom Start G-code
;... 91.253,112.513
G92 E0 ; Reset Extruder
G28 ; Home all axes
G1 Z2.0 F3000 ; Move Z Axis up little to prevent scratching of Heat Bed
G1 X0.1 Y20 Z0.3 F5000.0 ; Move to start position
G1 X0.1 Y200.0 Z0.3 F1500.0 E15 ; Draw the first line
G1 X0.4 Y200.0 Z0.3 F5000.0 ; Move to side a little
G1 X0.4 Y20 Z0.3 F1500.0 E30 ; Draw the second line
G92 E0 ; Reset Extruder
G1 Z2.0 F3000 ; Move Z Axis up little to prevent scratching of Heat Bed
G1 X5 Y20 Z0.3 F5000.0 ; Move over to prevent blob squish
G92 E0
G92 E0
G1 F2700 E-5
;LAYER_COUNT:181
;LAYER:0
M107
G0 F6000 X84.502 Y104.419 Z0.2
;TYPE:SKIRT
G1 F2700 E0
G1 F900 X85.232 Y103.831 E0.03118
G1 X86.01 Y103.306 E0.06239
G1 X86.829 Y102.85 E0.09357
G1 X87.685 Y102.465 E0.12479
G1 X88.701 Y102.116 E0.16052
G1 X89.218 Y101.966 E0.17842
G1 X90.129 Y101.743 E0.20962
G1 X91.056 Y101.599 E0.24082
G1 X92.082 Y101.532 E0.27502
G1 X93.214 Y101.513 E0.31267
G1 X142.152 Y101.514 E1.94036
G1 X142.833 Y101.524 E1.96301
G1 X143.769 Y101.578 E1.99419
G1 X144.697 Y101.711 E2.02538
G1 X145.382 Y101.862 E2.04871
G1 X145.905 Y101.995 E2.06665
G1 X146.803 Y102.265 E2.09784
G1 X147.675 Y102.61 E2.12903
G1 X148.515 Y103.028 E2.16024
G1 X149.316 Y103.517 E2.19145
G1 X150.072 Y104.071 E2.22263
G1 X150.806 Y104.715 E2.2551
G1 X151.192 Y105.085 E2.27289
G1 X151.841 Y105.762 E2.30408
G1 X152.429 Y106.492 E2.33526
G1 X152.954 Y107.27 E2.36647
G1 X153.41 Y108.089 E2.39765
G1 X153.795 Y108.945 E2.42887
G1 X154.144 Y109.961 E2.4646
G1 X154.294 Y110.478 E2.4825
G1 X154.517 Y111.389 E2.5137
G1 X154.661 Y112.316 E2.5449
G1 X154.728 Y113.342 E2.5791
G1 X154.747 Y114.474 E2.61675
G1 X154.746 Y120.848 E2.82875
G1 X154.736 Y121.565 E2.8526
G1 X154.683 Y122.502 E2.88382
G1 X154.55 Y123.43 E2.915
G1 X154.396 Y124.128 E2.93877
G1 X154.263 Y124.65 E2.95669
G1 X153.993 Y125.548 E2.98788
G1 X153.648 Y126.42 E3.01907
G1 X153.229 Y127.259 E3.05026
G1 X152.741 Y128.06 E3.08146
G1 X152.185 Y128.816 E3.11267
G1 X151.545 Y129.546 E3.14496
G1 X151.175 Y129.932 E3.16274
G1 X150.498 Y130.581 E3.19393
G1 X149.768 Y131.169 E3.22511
G1 X148.99 Y131.694 E3.25633
G1 X148.171 Y132.15 E3.28751
G1 X147.315 Y132.535 E3.31872
G1 X146.299 Y132.884 E3.35445
G1 X145.782 Y133.034 E3.37236
G1 X144.871 Y133.257 E3.40355
G1 X143.944 Y133.401 E3.43476
G1 X142.918 Y133.468 E3.46895
G1 X141.786 Y133.487 E3.50661
G1 X92.848 Y133.486 E5.13429
G1 X92.167 Y133.476 E5.15695
G1 X91.231 Y133.422 E5.18813
G1 X90.303 Y133.289 E5.21931
G1 X89.618 Y133.138 E5.24264
G1 X89.095 Y133.005 E5.26059
G1 X88.197 Y132.735 E5.29178
G1 X87.325 Y132.39 E5.32297
G1 X86.485 Y131.972 E5.35417
G1 X85.684 Y131.483 E5.38539
G1 X84.928 Y130.929 E5.41656
G1 X84.194 Y130.285 E5.44904
G1 X83.808 Y129.915 E5.46682
G1 X83.159 Y129.238 E5.49801
G1 X82.571 Y128.508 E5.52919
G1 X82.046 Y127.73 E5.56041
G1 X81.59 Y126.911 E5.59159
G1 X81.205 Y126.055 E5.6228
G1 X80.856 Y125.039 E5.65853
G1 X80.706 Y124.522 E5.67644
G1 X80.483 Y123.611 E5.70763
G1 X80.339 Y122.684 E5.73884
G1 X80.272 Y121.658 E5.77303
G1 X80.253 Y120.526 E5.81069
G1 X80.254 Y114.084 E6.02495
G1 X80.264 Y113.422 E6.04697
G1 X80.318 Y112.486 E6.07815
G1 X80.452 Y111.557 E6.10937
G1 X80.604 Y110.872 E6.13271
G1 X80.737 Y110.35 E6.15063
G1 X81.007 Y109.452 E6.18182
G1 X81.352 Y108.58 E6.21301
G1 X81.771 Y107.741 E6.2442
G1 X82.259 Y106.94 E6.27539
G1 X82.815 Y106.184 E6.30661
G1 X83.455 Y105.454 E6.3389
G1 X83.825 Y105.068 E6.35668
G1 X84.502 Y104.419 E6.38787
G0 F6000 X84.779 Y104.709
G1 F900 X85.497 Y104.132 E6.41851
G1 X86.262 Y103.621 E6.44911
G1 X87.069 Y103.177 E6.47974
G1 X87.912 Y102.806 E6.51038
G1 X88.812 Y102.5 E6.54199
G1 X89.329 Y102.35 E6.5599
G1 X90.224 Y102.132 E6.59054
G1 X91.134 Y101.992 E6.62116
G1 X92.089 Y101.932 E6.65298
G1 X93.214 Y101.913 E6.69041
G1 X142.146 Y101.914 E8.31789
G1 X142.827 Y101.924 E8.34054
G1 X143.746 Y101.978 E8.37116
G1 X144.657 Y102.111 E8.40178
G1 X145.283 Y102.25 E8.42311
G1 X145.806 Y102.383 E8.44106
G1 X146.688 Y102.648 E8.47169
G1 X147.543 Y102.989 E8.50231
G1 X148.366 Y103.403 E8.53295
G1 X149.149 Y103.887 E8.56357
G1 X149.887 Y104.437 E8.59418
G1 X150.529 Y105.004 E8.62267
G1 X150.915 Y105.374 E8.64045
G1 X151.551 Y106.039 E8.67106
G1 X152.128 Y106.757 E8.70169
G1 X152.639 Y107.522 E8.73229
G1 X153.083 Y108.329 E8.76293
G1 X153.454 Y109.172 E8.79356
G1 X153.76 Y110.072 E8.82518
G1 X153.91 Y110.589 E8.84308
G1 X154.128 Y111.484 E8.87372
G1 X154.268 Y112.394 E8.90434
G1 X154.328 Y113.349 E8.93617
G1 X154.347 Y114.474 E8.97359
G1 X154.346 Y120.843 E9.18542
G1 X154.336 Y121.56 E9.20927
G1 X154.283 Y122.479 E9.23989
G1 X154.151 Y123.39 E9.27051
G1 X154.009 Y124.029 E9.29228
G1 X153.876 Y124.551 E9.3102
G1 X153.61 Y125.433 E9.34084
G1 X153.269 Y126.288 E9.37145
G1 X152.854 Y127.11 E9.40208
G1 X152.37 Y127.893 E9.4327
G1 X151.82 Y128.631 E9.46331
G1 X151.256 Y129.269 E9.49163
G1 X150.886 Y129.655 E9.50941
G1 X150.221 Y130.291 E9.54002
G1 X149.503 Y130.868 E9.57066
G1 X148.738 Y131.379 E9.60125
G1 X147.931 Y131.823 E9.63189
G1 X147.088 Y132.194 E9.66252
G1 X146.188 Y132.5 E9.69414
G1 X145.671 Y132.65 E9.71204
G1 X144.776 Y132.868 E9.74268
G1 X143.866 Y133.008 E9.77331
G1 X142.911 Y133.068 E9.80513
G1 X141.786 Y133.087 E9.84255
G1 X92.854 Y133.086 E11.47004
G1 X92.173 Y133.076 E11.49269
G1 X91.254 Y133.022 E11.52331
G1 X90.343 Y132.889 E11.55393
G1 X89.717 Y132.75 E11.57526
G1 X89.194 Y132.617 E11.59321
G1 X88.312 Y132.352 E11.62384
G1 X87.457 Y132.011 E11.65446
G1 X86.634 Y131.597 E11.6851
G1 X85.851 Y131.113 E11.71571
G1 X85.113 Y130.563 E11.74633
G1 X84.471 Y129.996 E11.77481
G1 X84.085 Y129.626 E11.7926
G1 X83.449 Y128.961 E11.8232
G1 X82.872 Y128.243 E11.85384
G1 X82.361 Y127.478 E11.88444
G1 X81.917 Y126.671 E11.91507
G1 X81.546 Y125.828 E11.94571
G1 X81.24 Y124.928 E11.97732
G1 X81.09 Y124.411 E11.99523
G1 X80.872 Y123.516 E12.02587
G1 X80.732 Y122.606 E12.05649
G1 X80.672 Y121.651 E12.08832
G1 X80.653 Y120.526 E12.12574
G1 X80.654 Y114.09 E12.3398
G1 X80.664 Y113.428 E12.36182
G1 X80.718 Y112.509 E12.39244
G1 X80.851 Y111.598 E12.42306
G1 X80.991 Y110.971 E12.44443
G1 X81.124 Y110.449 E12.46235
G1 X81.39 Y109.567 E12.49299
G1 X81.731 Y108.712 E12.5236
G1 X82.146 Y107.89 E12.55423
G1 X82.63 Y107.107 E12.58484
G1 X83.18 Y106.369 E12.61546
G1 X83.744 Y105.731 E12.64378
G1 X84.114 Y105.345 E12.66156
G1 X84.779 Y104.709 E12.69217
G0 F6000 X85.056 Y104.998
G1 F900 X85.761 Y104.435 E12.72218
G1 X86.514 Y103.936 E12.75222
G1 X87.308 Y103.506 E12.78225
G1 X88.137 Y103.147 E12.8123
G1 X88.924 Y102.884 E12.8399
G1 X89.441 Y102.734 E12.85781
G1 X90.318 Y102.521 E12.88782
G1 X91.211 Y102.386 E12.91786
G1 X92.097 Y102.332 E12.94738
G1 X93.214 Y102.313 E12.98454
G1 X141.99 Y102.313 E14.60684
G1 X142.821 Y102.324 E14.63448
G1 X143.722 Y102.377 E14.6645
G1 X144.616 Y102.51 E14.69456
G1 X145.185 Y102.638 E14.71396
G1 X145.708 Y102.771 E14.73191
G1 X146.572 Y103.032 E14.76193
G1 X147.41 Y103.368 E14.79196
G1 X148.215 Y103.778 E14.822
G1 X148.981 Y104.257 E14.85205
G1 X149.701 Y104.801 E14.88206
G1 X150.252 Y105.293 E14.90663
G1 X150.638 Y105.663 E14.92442
G1 X151.262 Y106.316 E14.95446
G1 X151.825 Y107.021 E14.98447
G1 X152.324 Y107.774 E15.01451
G1 X152.754 Y108.568 E15.04454
G1 X153.113 Y109.397 E15.07459
G1 X153.376 Y110.184 E15.10219
G1 X153.526 Y110.701 E15.12009
G1 X153.739 Y111.578 E15.15011
G1 X153.874 Y112.471 E15.18015
G1 X153.928 Y113.357 E15.20967
G1 X153.947 Y114.474 E15.24683
G1 X153.946 Y120.837 E15.45846
G1 X153.936 Y121.554 E15.48231
G1 X153.883 Y122.456 E15.51237
G1 X153.751 Y123.349 E15.54239
G1 X153.621 Y123.93 E15.56219
G1 X153.488 Y124.452 E15.58011
G1 X153.227 Y125.317 E15.61016
G1 X152.89 Y126.155 E15.6402
G1 X152.48 Y126.96 E15.67025
G1 X152.001 Y127.725 E15.70027
G1 X151.456 Y128.445 E15.7303
G1 X150.967 Y128.992 E15.75471
G1 X150.597 Y129.378 E15.77249
G1 X149.944 Y130.002 E15.80253
G1 X149.239 Y130.565 E15.83254
G1 X148.486 Y131.064 E15.86258
G1 X147.692 Y131.494 E15.89262
G1 X146.863 Y131.853 E15.92266
G1 X146.076 Y132.116 E15.95026
G1 X145.559 Y132.266 E15.96817
G1 X144.682 Y132.479 E15.99818
G1 X143.789 Y132.614 E16.02822
G1 X142.903 Y132.668 E16.05775
G1 X141.786 Y132.687 E16.0949
G1 X92.86 Y132.686 E17.72219
G1 X92.179 Y132.676 E17.74484
G1 X91.278 Y132.623 E17.77486
G1 X90.384 Y132.49 E17.80492
G1 X89.815 Y132.362 E17.82432
G1 X89.292 Y132.229 E17.84227
G1 X88.428 Y131.968 E17.87229
G1 X87.59 Y131.632 E17.90232
G1 X86.785 Y131.222 E17.93236
G1 X86.019 Y130.743 E17.96241
G1 X85.299 Y130.199 E17.99243
G1 X84.748 Y129.707 E18.017
G1 X84.362 Y129.337 E18.03478
G1 X83.738 Y128.684 E18.06482
G1 X83.175 Y127.979 E18.09483
G1 X82.676 Y127.226 E18.12487
G1 X82.246 Y126.432 E18.15491
G1 X81.887 Y125.603 E18.18495
G1 X81.624 Y124.816 E18.21255
G1 X81.474 Y124.299 E18.23046
G1 X81.261 Y123.422 E18.26047
G1 X81.126 Y122.529 E18.29051
G1 X81.072 Y121.643 E18.32003
G1 X81.053 Y120.526 E18.35719
G1 X81.054 Y114.096 E18.57105
G1 X81.064 Y113.434 E18.59308
G1 X81.118 Y112.532 E18.62313
G1 X81.251 Y111.639 E18.65316
G1 X81.379 Y111.07 E18.67256
G1 X81.512 Y110.548 E18.69047
G1 X81.773 Y109.683 E18.72052
G1 X82.11 Y108.845 E18.75057
G1 X82.52 Y108.04 E18.78061
G1 X82.999 Y107.275 E18.81063
G1 X83.544 Y106.555 E18.84067
G1 X84.033 Y106.008 E18.86507
G1 X84.403 Y105.622 E18.88285
G1 X85.056 Y104.998 E18.91289
G1 F2700 E13.91289
G0 F6000 X107.654 Y111.86
G0 X111.136 Y116.313
G0 X111.601 Y116.313
G1 F2700 E18.91289
G1 F900 X123.399 Y116.313 E19.3053
G1 X123.399 Y118.687 E19.38426
G1 X111.601 Y118.687 E19.77666
G1 X111.601 Y116.313 E19.85562
G0 F6000 X111.201 Y115.913
G1 F900 X123.799 Y115.913 E20.27463
G1 X123.799 Y119.087 E20.3802
G1 X111.201 Y119.087 E20.79921
G1 X111.201 Y115.913 E20.90478
G0 F6000 X110.801 Y115.513
G1 F900 X124.199 Y115.513 E21.3504
G1 X124.199 Y119.487 E21.48257
G1 X110.801 Y119.487 E21.92819
G1 X110.801 Y115.513 E22.06037
G0 F6000 X110.401 Y115.113
G1 F900 X124.599 Y115.113 E22.5326
G1 X124.599 Y119.887 E22.69138
G1 X110.401 Y119.887 E23.16361
G1 X110.401 Y115.113 E23.32239
G0 F6000 X110.001 Y114.713
G1 F900 X124.999 Y114.713 E23.82123
G1 X124.999 Y120.287 E24.00662
G1 X110.001 Y120.287 E24.50545
G1 X110.001 Y114.713 E24.69085
G0 F6000 X109.601 Y114.313
G1 F900 X125.399 Y114.313 E25.21629
G1 X125.399 Y120.687 E25.42829
G1 X109.601 Y120.687 E25.95373
G1 X109.601 Y114.313 E26.16573
G0 F6000 X109.201 Y113.913
G1 F900 X125.799 Y113.913 E26.71778
G1 X125.799 Y121.087 E26.95639
G1 X109.201 Y121.087 E27.50844
G1 X109.201 Y113.913 E27.74705
G0 F6000 X108.801 Y113.513
G1 F900 X126.199 Y113.513 E28.32571
G1 X126.199 Y121.487 E28.59093
G1 X108.801 Y121.487 E29.16959
G1 X108.801 Y113.513 E29.43481
G0 F6000 X108.401 Y113.113
G1 F900 X126.599 Y113.113 E30.04007
G1 X126.599 Y121.887 E30.3319
G1 X108.401 Y121.887 E30.93717
G1 X108.401 Y113.113 E31.22899
G0 F6000 X108.001 Y112.713
G1 F900 X126.999 Y112.713 E31.86087
G1 X126.999 Y122.287 E32.1793
G1 X108.001 Y122.287 E32.81117
G1 X108.001 Y112.713 E33.12961
G1 F2700 E28.12961
G0 F6000 X111.136 Y116.593
G0 X111.881 Y116.593
;TYPE:SUPPORT
G1 F2700 E33.12961
G1 F900 X111.881 Y118.407 E33.18994
G1 X112.788 Y118.407 E33.22011
G1 X123.119 Y118.407 E33.56372
G1 X123.119 Y116.593 E33.62405
G1 X111.881 Y116.593 E33.99783
G1 X112 Y116.673
G1 X112 Y118.327 E34.05284
G0 F6000 X111.961 Y118
G1 F900 X123.039 Y118 E34.4213
G0 F6000 X122 Y118.327
G1 F900 X122 Y116.673 E34.47631
G0 F6000 X120 Y116.673
G1 F900 X120 Y118.327 E34.53132
G0 F6000 X118 Y118.327
G1 F900 X118 Y116.673 E34.58633
G0 F6000 X116 Y116.673
G1 F900 X116 Y118.327 E34.64135
G0 F6000 X114 Y118.327
G1 F900 X114 Y116.673 E34.69636
G1 F2700 E29.69636
;MESH:18_1_Flanged_plain_bearings.stl
G0 F6000 X114 Y115.848
G0 X111.148 Y115.86
G0 X107.666 Y116.673
G0 X106.581 Y116.673
G0 X105.601 Y121.087
;TYPE:WALL-INNER
G1 F2700 E34.69636
G1 F900 X105.601 Y115.597 E34.87896
G1 X105.601 Y113.913 E34.93497
G1 X100.877 Y113.913 E35.09209
G1 X101.269 Y114.303 E35.11048
G1 X101.795 Y114.987 E35.13918
G1 X101.979 Y115.306 E35.15143
G1 X102.332 Y116.166 E35.18235
G1 X102.403 Y116.459 E35.19237
G1 X102.539 Y117.502 E35.22736
G1 X102.377 Y118.721 E35.26826
G1 X101.979 Y119.691 E35.30313
G1 X101.795 Y120.011 E35.31541
G1 X101.268 Y120.697 E35.34418
G1 X100.877 Y121.086 E35.36252
G1 X105.601 Y121.087 E35.51965
G0 F6000 X106.001 Y121.487
G1 F900 X106.001 Y115.597 E35.71555
G1 X106.001 Y113.513 E35.78486
G1 X99.389 Y113.514 E36.00478
G1 X99.855 Y113.706 E36.02154
G1 X100.081 Y113.837 E36.03023
G1 X100.767 Y114.363 E36.05898
G1 X100.951 Y114.547 E36.06764
G1 X101.477 Y115.231 E36.09633
G1 X101.609 Y115.459 E36.1051
G1 X101.989 Y116.382 E36.1383
G1 X102.135 Y117.5 E36.1758
G1 X101.988 Y118.619 E36.21333
G1 X101.609 Y119.539 E36.24643
G1 X101.478 Y119.767 E36.25517
G1 X100.95 Y120.453 E36.28397
G1 X100.769 Y120.635 E36.2925
G1 X100.085 Y121.162 E36.32122
G1 X99.855 Y121.296 E36.33008
G1 X99.39 Y121.486 E36.34678
G1 X106.001 Y121.487 E36.56667
G0 F6000 X97.815 Y121.658
G0 X97.206 Y121.579
G0 X94.75 Y121.086
G1 F900 X94.36 Y120.696 E36.58501
G1 X93.834 Y120.009 E36.61379
G1 X93.651 Y119.691 E36.62599
G1 F895.5 X93.32 Y118.894 E36.65484
G1 F800 X93.191 Y118.609 E36.66654
G1 F777.5 X93.099 Y117.687 E36.70222
G1 F833.3 X93.099 Y117.313 E36.71565
G1 F782.6 X93.184 Y116.451 E36.74878
G1 F810.8 X93.651 Y115.309 E36.79433
G1 F900 X93.836 Y114.989 E36.80663
G1 X94.362 Y114.303 E36.83538
G1 X94.617 Y114.049 E36.84735
G1 X94.793 Y113.914 E36.85473
G1 X92.654 Y113.914 E36.92587
G1 X92.654 Y115.975 E36.99442
G1 F810.8 X92.697 Y116.419 E37.01089
G1 F787.7 X92.665 Y117.5 E37.05198
G1 F782.6 X92.7 Y118.651 E37.09603
G1 F800 X92.656 Y119.025 E37.11012
G1 F895.5 X92.654 Y121.086 E37.17901
G1 F900 X94.75 Y121.086 E37.24872
G0 F6000 X95.775 Y121.296
G1 F900 X95.546 Y121.164 E37.25752
G1 X94.862 Y120.637 E37.28623
G1 X94.678 Y120.452 E37.29491
G1 X94.152 Y119.766 E37.32366
G1 X94.021 Y119.539 E37.33238
G1 X93.643 Y118.621 E37.3654
G1 X93.511 Y117.632 E37.39859
G1 X93.511 Y117.368 E37.40737
G1 X93.625 Y116.509 E37.43619
G1 X93.691 Y116.259 E37.44479
G1 X94.021 Y115.461 E37.47351
G1 X94.153 Y115.233 E37.48227
G1 X94.68 Y114.547 E37.51104
G1 X94.861 Y114.365 E37.51958
G1 X95.545 Y113.838 E37.5483
G1 X95.776 Y113.704 E37.55718
G1 X96.242 Y113.514 E37.57392
G1 X92.438 Y113.513 E37.70044
G1 X92.291 Y113.557 E37.70555
G1 X92.253 Y113.698 E37.7104
G1 X92.253 Y121.302 E37.96331
G1 X92.297 Y121.448 E37.96839
G1 X92.438 Y121.487 E37.97325
G1 X96.24 Y121.486 E38.09971
G1 X95.775 Y121.296 E38.11641
G0 F6000 X97.778 Y121.713
G0 X97.815 Y121.43
G1 F770.9 X96.871 Y121.342 E38.15323
G1 F762.7 X95.848 Y120.891 E38.19711
G1 F825.7 X95.041 Y120.269 E38.23405
G1 F873.8 X94.423 Y119.463 E38.26884
G1 F900 X94.032 Y118.519 E38.30282
G1 X93.897 Y117.5 E38.33701
G1 X94.031 Y116.484 E38.3711
G1 X94.422 Y115.54 E38.40508
G1 F873.8 X95.044 Y114.73 E38.44007
G1 F825.7 X95.848 Y114.109 E38.4769
G1 F761.1 X96.871 Y113.658 E38.52087
G1 F769.2 X97.815 Y113.57 E38.55776
G1 F770.9 X98.759 Y113.658 E38.59458
G1 F762.7 X99.783 Y114.112 E38.63854
G1 F849.1 X100.584 Y114.726 E38.67412
G1 F900 X101.209 Y115.538 E38.7082
G1 X101.601 Y116.491 E38.74248
G1 X101.727 Y117.5 E38.7763
G1 X101.599 Y118.511 E38.81019
G1 F886.7 X101.209 Y119.46 E38.84483
G1 F861.2 X100.586 Y120.27 E38.88035
G1 F825.7 X99.782 Y120.891 E38.91718
