;FLAVOR:Marlin
;TIME:2349
;Filament used: 2.00602m
;Layer height: 0.2
;MINX:95.153
;MINY:96.413
;MINZ:0.2
;MAXX:154.847
;MAXY:113.587
;MAXZ:36.2
;TARGET_MACHINE.NAME:Prusa i3 Mk3/Mk3s
;Generated with Cura_SteamEngine 5.8.1
M82 ;absolute extrusion mode
;... 90.0,90.0
G21 ; set units to millimeters
G90 ; use absolute positioning
M82 ; absolute extrusion mode
M104 S215 ; set extruder temp
M140 S70 ; set bed temp
M190 S70 ; wait for bed temp
M109 S215 ; wait for extruder temp
G28 W ; home all without mesh bed level
G80 ; mesh bed leveling
G92 E0.0 ; reset extruder distance position
G1 Y-3.0 F1000.0 ; go outside print area
G1 X60.0 E9.0 F1000.0 ; intro line
G1 X100.0 E21.5 F1000.0 ; intro line
G92 E0.0 ; reset extruder distance position
G92 E0
G92 E0
G1 F2100 E-0.8
;LAYER_COUNT:181
;LAYER:0
M107
G0 F3600 X96.667 Y97.689 Z0.2
;TYPE:SKIRT
G1 F2100 E0
G1 F1800 X97.066 Y97.331 E0.01783
G1 X97.608 Y96.986 E0.0392
G1 X98.223 Y96.736 E0.06128
G1 X98.81 Y96.565 E0.08161
G1 X99.435 Y96.436 E0.10284
G1 X100.707 Y96.413 E0.14515
G1 X149.543 Y96.413 E1.76945
G1 X150.224 Y96.423 E1.7921
G1 X151.059 Y96.534 E1.82012
G1 X151.612 Y96.676 E1.8391
G1 X152.148 Y96.864 E1.858
G1 X152.655 Y97.139 E1.87718
G1 X153.185 Y97.557 E1.89963
G1 X153.571 Y97.927 E1.91742
G1 X153.929 Y98.326 E1.93524
G1 X154.274 Y98.868 E1.95661
G1 X154.524 Y99.483 E1.97869
G1 X154.695 Y100.07 E1.99903
G1 X154.824 Y100.695 E2.02026
G1 X154.847 Y101.967 E2.06257
G1 X154.847 Y108.246 E2.27141
G1 X154.834 Y109.01 E2.29682
G1 X154.726 Y109.801 E2.32338
G1 X154.584 Y110.353 E2.34233
G1 X154.395 Y110.891 E2.3613
G1 X154.12 Y111.396 E2.38043
G1 X153.703 Y111.925 E2.40283
G1 X153.333 Y112.311 E2.42061
G1 X152.934 Y112.669 E2.43844
G1 X152.392 Y113.014 E2.45981
G1 X151.777 Y113.264 E2.48189
G1 X151.19 Y113.435 E2.50223
G1 X150.565 Y113.564 E2.52345
G1 X149.293 Y113.587 E2.56577
G1 X100.457 Y113.587 E4.19006
G1 X99.776 Y113.577 E4.21271
G1 X98.941 Y113.466 E4.24073
G1 X98.388 Y113.324 E4.25972
G1 X97.852 Y113.136 E4.27861
G1 X97.345 Y112.861 E4.29779
G1 X96.815 Y112.443 E4.32024
G1 X96.429 Y112.073 E4.33803
G1 X96.071 Y111.674 E4.35586
G1 X95.726 Y111.132 E4.37723
G1 X95.476 Y110.517 E4.39931
G1 X95.305 Y109.93 E4.41964
G1 X95.176 Y109.305 E4.44087
G1 X95.153 Y108.033 E4.48318
G1 X95.153 Y101.696 E4.69395
G1 X95.163 Y101.034 E4.71597
G1 X95.274 Y100.199 E4.74399
G1 X95.416 Y99.647 E4.76295
G1 X95.605 Y99.109 E4.78191
G1 X95.88 Y98.604 E4.80104
G1 X96.297 Y98.075 E4.82344
G1 X96.667 Y97.689 E4.84123
G0 F3600 X96.956 Y97.966
G1 F1800 X96.586 Y98.352 E4.85901
G1 X96.195 Y98.851 E4.88009
G1 X95.958 Y99.297 E4.89689
G1 X95.795 Y99.776 E4.91372
G1 X95.662 Y100.298 E4.93164
G1 X95.563 Y101.04 E4.95654
G1 X95.553 Y101.702 E4.97856
G1 X95.553 Y108.026 E5.18889
G1 X95.575 Y109.259 E5.22991
G1 X95.697 Y109.849 E5.24995
G1 X95.847 Y110.366 E5.26785
G1 X96.097 Y110.981 E5.28993
G1 X96.369 Y111.407 E5.30674
G1 X96.706 Y111.784 E5.32356
G1 X97.092 Y112.154 E5.34135
G1 X97.592 Y112.546 E5.36248
G1 X98.039 Y112.782 E5.37929
G1 X98.517 Y112.945 E5.39609
G1 X99.04 Y113.078 E5.41404
G1 X99.782 Y113.177 E5.43893
G1 X100.463 Y113.187 E5.46159
G1 X149.286 Y113.187 E7.08545
G1 X150.519 Y113.165 E7.12646
G1 X151.109 Y113.043 E7.1465
G1 X151.626 Y112.893 E7.16441
G1 X152.241 Y112.643 E7.18649
G1 X152.667 Y112.371 E7.2033
G1 X153.044 Y112.034 E7.22012
G1 X153.414 Y111.648 E7.2379
G1 X153.805 Y111.149 E7.25898
G1 X154.042 Y110.703 E7.27578
G1 X154.205 Y110.224 E7.29261
G1 X154.338 Y109.702 E7.31053
G1 X154.437 Y108.957 E7.33552
G1 X154.447 Y108.24 E7.35937
G1 X154.447 Y101.974 E7.56778
G1 X154.425 Y100.741 E7.6088
G1 X154.303 Y100.151 E7.62884
G1 X154.153 Y99.634 E7.64674
G1 X153.903 Y99.019 E7.66882
G1 X153.631 Y98.593 E7.68563
G1 X153.294 Y98.216 E7.70245
G1 X152.908 Y97.846 E7.72024
G1 X152.408 Y97.454 E7.74137
G1 X151.961 Y97.218 E7.75818
G1 X151.483 Y97.055 E7.77498
G1 X150.96 Y96.922 E7.79293
G1 X150.218 Y96.823 E7.81782
G1 X149.537 Y96.813 E7.84048
G1 X100.714 Y96.813 E9.46434
G1 X99.481 Y96.835 E9.50535
G1 X98.891 Y96.957 E9.52539
G1 X98.374 Y97.107 E9.54329
G1 X97.759 Y97.357 E9.56538
G1 X97.333 Y97.629 E9.58219
G1 X96.956 Y97.966 E9.599
G1 F2100 E8.799
G0 F3600 X115.154 Y99.36
G0 X115.701 Y100.213
G1 F2100 E9.599
G1 F1800 X134.299 Y100.213 E10.21758
G1 X134.299 Y109.787 E10.53601
G1 X115.701 Y109.787 E11.15458
G1 X115.701 Y100.213 E11.47301
G0 F3600 X116.101 Y100.613
G1 F1800 X133.899 Y100.613 E12.06498
G1 X133.899 Y109.387 E12.3568
G1 X116.101 Y109.387 E12.94877
G1 X116.101 Y100.613 E13.24059
G0 F3600 X116.501 Y101.013
G1 F1800 X133.499 Y101.013 E13.80595
G1 X133.499 Y108.987 E14.07116
G1 X116.501 Y108.987 E14.63652
G1 X116.501 Y101.013 E14.90173
G1 F2100 E14.10173
G0 F3600 X117.3 Y101.812
;TYPE:SUPPORT
G1 F2100 E14.90173
G1 F1800 X117.3 Y108.184 E15.11367
G1 X132.696 Y108.184 E15.62574
G1 X132.696 Y101.812 E15.83767
G1 X117.3 Y101.812 E16.34975
G0 F3600 X116.9 Y101.412
G1 F1800 X116.9 Y108.584 E16.58829
G1 X133.096 Y108.584 E17.12697
G1 X133.096 Y101.412 E17.36551
G1 X116.9 Y101.412 E17.90419
G1 F2100 E17.10419
G0 F3600 X117.46 Y104.013
G1 F2100 E17.90419
G1 F1800 X132.536 Y104.013 E18.40562
G1 F2100 E17.60562
G0 F3600 X132.536 Y106.68
G1 F2100 E18.40562
G1 F1800 X117.46 Y106.68 E18.90705
G1 F2100 E18.10705
G0 F3600 X120.015 Y108.024
G1 F2100 E18.90705
G1 F1800 X120.015 Y101.972 E19.10834
G1 F2100 E18.30834
G0 F3600 X122.682 Y101.972
G1 F2100 E19.10834
G1 F1800 X122.682 Y108.024 E19.30963
G1 F2100 E18.50963
G0 F3600 X125.349 Y108.024
G1 F2100 E19.30963
G1 F1800 X125.349 Y101.972 E19.51092
G1 F2100 E18.71092
G0 F3600 X128.016 Y101.972
G1 F2100 E19.51092
G1 F1800 X128.016 Y108.024 E19.71221
G1 F2100 E18.91221
G0 F3600 X130.683 Y108.024
G1 F2100 E19.71221
G1 F1800 X130.683 Y101.972 E19.9135
G1 F2100 E19.1135
;MESH:axle_bracket_orig.stl
G0 F3600 X115.166 Y101.972
G0 X114.081 Y101.972
G0 X109.294 Y107.501
;TYPE:WALL-INNER
G1 F2100 E19.9135
G1 F1800 X108.77 Y108.189 E19.94227
G1 X108.334 Y108.584 E19.96184
G1 X113.1 Y108.584 E20.12035
G1 X113.1 Y101.412 E20.3589
G1 X108.334 Y101.412 E20.51741
G1 X108.767 Y101.803 E20.53682
G1 X109.295 Y102.491 E20.56566
G1 X109.479 Y102.81 E20.57791
G1 X109.876 Y103.779 E20.61274
G1 X110.037 Y105.001 E20.65374
G1 X109.876 Y106.219 E20.6946
G1 X109.473 Y107.192 E20.72963
G1 X109.294 Y107.501 E20.7415
G0 F3600 X108.265 Y108.134
G1 F1800 X107.472 Y108.742 E20.77474
G1 X106.881 Y108.985 E20.79599
G1 X113.5 Y108.984 E21.01614
G1 X113.5 Y101.012 E21.28129
G1 X106.881 Y101.012 E21.50144
G1 X107.478 Y101.259 E21.52293
G1 X108.264 Y101.862 E21.55588
G1 X108.45 Y102.047 E21.5646
G1 X108.978 Y102.735 E21.59345
G1 X109.109 Y102.963 E21.60219
G1 X109.487 Y103.882 E21.63525
G1 X109.633 Y105 E21.67275
G1 X109.486 Y106.117 E21.71022
G1 X109.057 Y107.152 E21.74748
G1 X108.452 Y107.946 E21.78068
G1 X108.265 Y108.134 E21.7895
G0 F3600 X106.292 Y109.091
G0 X106.261 Y108.839
G1 F1621.6 X105.312 Y108.927 E21.82469
G1 F1538.5 X104.372 Y108.84 E21.86143
G1 F1519 X103.345 Y108.388 E21.90565
G1 F1651.4 X102.543 Y107.767 E21.94242
G1 F1747.6 X101.921 Y106.958 E21.97738
G1 F1800 X101.53 Y106.011 E22.01146
G1 X101.404 Y105 E22.04534
G1 X101.529 Y103.988 E22.07926
G1 X101.921 Y103.038 E22.11344
G1 X102.543 Y102.229 E22.14738
G1 F1694.1 X103.343 Y101.61 E22.18313
G1 F1512.6 X104.344 Y101.159 E22.22658
G1 F1531.9 X105.312 Y101.069 E22.26458
G1 F1538.5 X106.256 Y101.156 E22.30147
G1 F1519 X107.281 Y101.612 E22.34568
G1 F1651.4 X108.083 Y102.227 E22.38232
G1 F1747.6 X108.708 Y103.038 E22.4174
G1 F1800 X109.097 Y103.986 E22.45148
G1 X109.23 Y105 E22.48549
G1 X109.097 Y106.01 E22.51938
G1 X108.705 Y106.955 E22.55341
G1 F1773.4 X108.086 Y107.767 E22.58787
G1 F1722.5 X107.278 Y108.387 E22.62327
G1 F1643.8 X106.261 Y108.839 E22.66381
G0 F3600 X106.292 Y109.091
G0 X105.315 Y109.158
G0 X104.24 Y109.017
G0 X103.427 Y108.68
G0 X101.333 Y107.505
G1 F1800 X101.149 Y107.186 E22.67605
G1 F1791 X100.819 Y106.391 E22.70483
G1 F1600 X100.69 Y106.106 E22.71653
G1 F1487.6 X100.582 Y105.002 E22.76117
G1 F1493.8 X100.683 Y103.953 E22.80341
G1 F1621.6 X101.149 Y102.81 E22.84898
G1 F1800 X101.341 Y102.479 E22.86171
G1 X101.861 Y101.803 E22.89007
G1 X102.292 Y101.412 E22.90943
G1 X100.153 Y101.413 E22.98057
G1 X100.152 Y103.474 E23.04912
G1 F1621.6 X100.196 Y103.922 E23.06574
G1 F1572.1 X100.165 Y105 E23.10681
G1 F1565.2 X100.199 Y106.148 E23.15074
G1 F1600 X100.154 Y106.522 E23.16484
G1 F1791 X100.152 Y108.584 E23.23376
G1 F1800 X102.292 Y108.584 E23.30494
G1 X101.861 Y108.193 E23.32429
G1 X101.333 Y107.505 E23.35314
G0 F3600 X102.258 Y108.053
G1 F1800 X101.65 Y107.261 E23.38635
G1 X101.519 Y107.033 E23.39509
G1 X101.142 Y106.119 E23.42798
G1 X100.995 Y105.001 E23.46548
G1 X101.124 Y104.01 E23.49872
G1 X101.191 Y103.758 E23.50739
G1 X101.519 Y102.963 E23.536
G1 X101.658 Y102.723 E23.54522
G1 X102.259 Y101.942 E23.578
G1 X103.152 Y101.253 E23.61551
G1 X103.739 Y101.013 E23.63661
G1 X99.932 Y101.012 E23.76323
G1 X99.789 Y101.054 E23.76818
G1 X99.752 Y101.192 E23.77294
G1 X99.752 Y108.804 E24.02611
G1 X99.79 Y108.942 E24.03087
G1 X99.932 Y108.984 E24.0358
G1 X103.739 Y108.983 E24.16242
G1 X103.152 Y108.743 E24.18351
G1 X102.258 Y108.053 E24.22107
G0 F3600 X103.237 Y108.602
G0 X104.24 Y109.017
G0 X105.111 Y109.131
G0 X106.526 Y109.087
G0 X106.526 Y109.36
G1 F1694.1 X107.387 Y109.384 E24.25151
G1 F1800 X113.9 Y109.384 E24.46814
G1 X113.9 Y100.612 E24.75989
G1 X107.394 Y100.612 E24.97628
G1 F1718.4 X106.528 Y100.631 E25.00646
G1 F1538.5 X106.288 Y100.661 E25.01587
G1 X105.312 Y100.631 E25.05387
G1 F1531.9 X104.301 Y100.662 E25.0934
G1 F1512.6 X104.104 Y100.638 E25.10126
G1 F1694.1 X103.239 Y100.612 E25.13184
G1 F1800 X99.879 Y100.612 E25.24359
G1 X99.587 Y100.69 E25.25365
G1 X99.43 Y100.847 E25.26103
G1 X99.352 Y101.139 E25.27108
G1 X99.352 Y108.857 E25.52778
G1 X99.431 Y109.149 E25.53785
G1 X99.587 Y109.305 E25.54518
G1 X99.879 Y109.384 E25.55524
G1 X103.239 Y109.384 E25.667
G1 F1714.3 X104.104 Y109.364 E25.69721
G1 F1538.5 X104.34 Y109.335 E25.70647
G1 X105.312 Y109.365 E25.74431
G1 F1531.9 X106.327 Y109.334 E25.784
G1 F1512.6 X106.526 Y109.36 E25.79194
G0 F3600 X106.526 Y109.087
G0 X105.222 Y109.206
G0 X105.312 Y108.51
;TYPE:WALL-OUTER
G1 F1800 X104.403 Y108.392 E25.82243
G1 X103.554 Y108.043 E25.85296
G1 X102.849 Y107.499 E25.88257
G1 X102.269 Y106.753 E25.914
G1 X101.918 Y105.891 E25.94496
G1 X101.802 Y105 E25.97484
G1 X101.92 Y104.089 E26.0054
G1 X102.269 Y103.242 E26.03587
G1 X102.849 Y102.497 E26.06727
G1 X103.555 Y101.952 E26.09693
G1 X104.421 Y101.602 E26.128
G1 X105.312 Y101.486 E26.15789
G1 X106.223 Y101.604 E26.18844
G1 X107.073 Y101.957 E26.21905
G1 X107.799 Y102.513 E26.24946
G1 X108.359 Y103.243 E26.28007
G1 X108.701 Y104.072 E26.30989
G1 X108.827 Y105 E26.34104
G1 X108.701 Y105.924 E26.37206
G1 X108.34 Y106.774 E26.40277
G1 X107.816 Y107.462 E26.43154
G1 X107.069 Y108.043 E26.46301
G1 X106.207 Y108.394 E26.49397
G1 X105.312 Y108.51 E26.52399
G0 F3600 X105.114 Y108.485
G0 X105.024 Y109.18
G0 X99.923 Y109.088
G0 X99.827 Y109.784
G1 F1800 X114.3 Y109.784 E27.00536
G1 X114.3 Y100.212 E27.32373
G1 X99.827 Y100.212 E27.8051
G1 X99.38 Y100.332 E27.82049
G1 X99.072 Y100.64 E27.83498
G1 X98.952 Y101.087 E27.85037
G1 X98.952 Y108.909 E28.11054
G1 X99.072 Y109.356 E28.12593
G1 X99.38 Y109.664 E28.14042
G1 X99.827 Y109.784 E28.15581
G0 F3600 X100.027 Y109.784
G0 X100.027 Y109.087
G0 X100.978 Y107.736
;TYPE:SKIN
G1 F1490.7 X101.306 Y108.163 E28.17743
G1 X100.573 Y108.163 E28.20687
G1 X100.577 Y106.909 E28.25724
G1 X100.757 Y107.345 E28.27618
G1 X100.978 Y107.736 E28.29422
G0 F3600 X100.978 Y102.256
G1 F1493.8 X100.752 Y102.656 E28.31263
G1 X100.574 Y103.096 E28.33165
G1 X100.573 Y101.833 E28.38227
G1 X101.302 Y101.833 E28.41149
G1 X100.978 Y102.256 E28.43285
G0 F3600 X104.241 Y100.985
G0 X105.314 Y100.842
G0 X106.391 Y100.983
G0 X107.393 Y101.399
G0 X108.255 Y102.059
G0 X108.917 Y102.922
G0 X109.291 Y103.825
G0 X109.814 Y107.351
G1 F1800 X110.189 Y106.456 E28.46512
G1 X110.266 Y106.163 E28.4752
G1 X110.419 Y105 E28.51421
G1 X110.275 Y103.913 E28.55068
G1 X110.185 Y103.533 E28.56367
G1 X109.825 Y102.659 E28.59511
G1 X109.611 Y102.277 E28.60967
G1 X109.241 Y101.792 E28.62996
G1 X112.72 Y101.792 E28.74567
G1 X112.72 Y108.204 E28.95894
G1 X109.234 Y108.203 E29.07488
G1 X109.599 Y107.726 E29.09486
G1 X109.814 Y107.351 E29.10924
G0 F3600 X109.886 Y107.623
G1 F1800 X110.266 Y108.003 E29.12711
G0 F3600 X110.831 Y108.003
G1 F1800 X110.075 Y107.247 E29.16267
G0 F3600 X110.242 Y106.848
G1 F1800 X111.398 Y108.003 E29.21702
G0 F3600 X111.963 Y108.003
G1 F1800 X110.398 Y106.438 E29.29063
G0 F3600 X110.492 Y105.966
G1 F1800 X112.52 Y107.994 E29.38602
G0 F3600 X112.52 Y107.429
G1 F1800 X110.556 Y105.465 E29.47841
G0 F3600 X110.61 Y104.953
G1 F1800 X112.52 Y106.863 E29.56825
G0 F3600 X112.52 Y106.297
G1 F1800 X110.525 Y104.302 E29.66208
G0 F3600 X110.412 Y103.624
G1 F1800 X112.52 Y105.732 E29.76124
G0 F3600 X112.52 Y105.166
G1 F1800 X110.061 Y102.707 E29.8769
G0 F3600 X109.912 Y101.992
G1 F1800 X112.52 Y104.6 E29.99957
G0 F3600 X112.52 Y104.034
G1 F1800 X110.478 Y101.992 E30.09562
G0 F3600 X111.043 Y101.992
G1 F1800 X112.52 Y103.469 E30.1651
G0 F3600 X112.52 Y102.903
G1 F1800 X111.609 Y101.992 E30.20795
G0 F3600 X112.175 Y101.992
G1 F1800 X112.52 Y102.337 E30.22418
G1 F2100 E29.42418
G0 F3600 X114.081 Y107.505
G0 X115.166 Y107.505
G0 X134.834 Y107.505
G0 X135.919 Y107.505
G0 X140.705 Y107.505
;TYPE:WALL-INNER
G1 F2100 E30.22418
G1 F1800 X140.523 Y107.192 E30.23622
G1 X140.12 Y106.219 E30.27125
G1 X139.959 Y105.002 E30.31208
G1 X140.118 Y103.782 E30.353
G1 X140.523 Y102.804 E30.3882
G1 X140.702 Y102.495 E30.40008
G1 X141.226 Y101.807 E30.42885
G1 X141.662 Y101.412 E30.44841
G1 X136.896 Y101.412 E30.60693
G1 X136.896 Y108.584 E30.84547
G1 X141.664 Y108.584 E31.00406
G1 X141.233 Y108.193 E31.02341
G1 X140.705 Y107.505 E31.05226
G0 F3600 X141.63 Y108.053
G1 F1800 X140.94 Y107.155 E31.08992
G1 X140.51 Y106.117 E31.12729
G1 X140.363 Y105.001 E31.16473
G1 X140.509 Y103.881 E31.2023
G1 X140.939 Y102.844 E31.23964
G1 X141.544 Y102.05 E31.27284
G1 X141.731 Y101.862 E31.28166
G1 X142.526 Y101.252 E31.31499
G1 X143.111 Y101.013 E31.336
G1 X136.496 Y101.012 E31.55602
G1 X136.496 Y108.984 E31.82117
G1 X143.11 Y108.984 E32.04115
G1 X142.526 Y108.745 E32.06214
G1 X141.63 Y108.053 E32.09979
G0 F3600 X142.605 Y108.602
G0 X143.61 Y109.017
G0 X144.481 Y109.131
G0 X145.663 Y109.09
G0 X145.63 Y108.839
G1 F1621.6 X144.684 Y108.927 E32.13487
G1 F1538.5 X143.74 Y108.84 E32.17176
G1 F1519 X142.718 Y108.388 E32.2158
G1 F1651.4 X141.915 Y107.767 E32.25261
G1 F1747.6 X141.293 Y106.958 E32.28757
G1 F1800 X140.898 Y106.009 E32.32175
G1 X140.772 Y105 E32.35557
G1 X140.897 Y103.99 E32.38942
G1 X141.291 Y103.041 E32.4236
G1 F1747.6 X141.91 Y102.229 E32.45858
G1 F1643.8 X142.718 Y101.609 E32.49567
G1 F1512.6 X143.716 Y101.159 E32.539
G1 F1531.9 X144.684 Y101.069 E32.57699
G1 F1538.5 X145.624 Y101.156 E32.61373
G1 F1519 X146.651 Y101.608 E32.65795
G1 F1651.4 X147.452 Y102.228 E32.69468
G1 F1722.5 X148.076 Y103.037 E32.73019
G1 F1773.4 X148.471 Y103.992 E32.76508
G1 F1800 X148.596 Y105 E32.79886
G1 X148.47 Y106.01 E32.83271
G1 X148.078 Y106.957 E32.8668
G1 X147.452 Y107.768 E32.90088
G1 F1747.6 X146.651 Y108.387 E32.93556
G1 F1643.8 X145.63 Y108.839 E32.97622
G0 F3600 X145.663 Y109.09
G0 X146.554 Y108.695
G0 X148.657 Y107.516
G1 F1800 X148.133 Y108.196 E33.00477
G1 X147.704 Y108.584 E33.02401
G1 X149.844 Y108.584 E33.09519
G1 F1791 X149.842 Y106.526 E33.16398
G1 F1607.1 X149.798 Y106.148 E33.17816
G1 F1572.1 X149.832 Y105 E33.2219
