; generated by PrusaSlicer 2.8.0+win64 on 2024-09-19 at 12:40:19 UTC


;
;
; 

; external perimeters extrusion width = 0.45mm
; perimeters extrusion width = 0.45mm
; infill extrusion width = 0.45mm
; solid infill extrusion width = 0.45mm
; top infill extrusion width = 0.40mm
; support material extrusion width = 0.35mm
; first layer extrusion width = 0.42mm

M73 P0 R57
M73 Q0 S57
M201 X1000 Y1000 Z200 E5000 ; sets maximum accelerations, mm/sec^2
M203 X200 Y200 Z12 E120 ; sets maximum feedrates, mm / sec
M204 S1250 T1250 ; sets acceleration (S) and retract acceleration (R), mm/sec^2
M205 X8.00 Y8.00 Z0.40 E4.50 ; sets the jerk limits, mm/sec
M205 S0 T0 ; sets the minimum extruding and travel feed rate, mm/sec

; printing object axle_bracket_orig.stl id:0 copy 0
; stop printing object axle_bracket_orig.stl id:0 copy 0

;TYPE:Custom
;... 98.8,100.0,
M115 U3.14.0 ; tell printer latest fw version
G90 ; use absolute coordinates
M83 ; extruder relative mode
M104 S230 ; set extruder temp
M140 S85 ; set bed temp
M190 S85 ; wait for bed temp
M109 S230 ; wait for extruder temp
G28 W ; home all without mesh bed level
G80 X96.3763 Y97.6361 W57.2474 H14.7279 ; mesh bed levelling

G1 Z0.2 F720
G1 Y-3 F1000 ; go outside print area
G92 E0
G1 X60 E9 F1000 ; intro line
G1 X100 E12.5 F1000 ; intro line

G92 E0
M221 S95

; Don't change E values below. Excessive value can damage the printer.
M907 E430 ; set extruder motor current
G21 ; set units to millimeters
G90 ; use absolute coordinates
M83 ; use relative distances for extrusion

M900 K0.08 ; Filament gcode LA 1.5
M900 K45 ; Filament gcode LA 1.0




M107
;LAYER_CHANGE
;Z:0.2
;HEIGHT:0.2
G1 E-1 F2100
G1 Z.4 F720
G1 X97.724 Y98.613 F10800
G1 Z.2 F720
G1 E1 F2100
M204 S800
;TYPE:Skirt/Brim
;WIDTH:0.42
G1 F1200
G1 X98.686 Y98.052 E.03492
G1 X99.208 Y97.907 E.01699
G1 X99.793 Y97.827 E.01851
G1 X150.197 Y97.825 E1.58038
G1 X150.763 Y97.899 E.0179
G1 X151.288 Y98.04 E.01704
G1 X152.269 Y98.606 E.03551
G1 X152.653 Y98.991 E.01705
G1 X153.22 Y99.972 E.03553
G1 X153.435 Y101.063 E.03487
G1 X153.435 Y108.937 E.24688
G1 X153.361 Y109.503 E.0179
G1 X153.22 Y110.028 E.01704
G1 X152.653 Y111.009 E.03553
G1 X152.269 Y111.394 E.01705
G1 X151.288 Y111.96 E.03551
G1 X150.773 Y112.098 E.01672
G1 X150.207 Y112.173 E.0179
G1 X99.803 Y112.175 E1.58038
G1 X98.712 Y111.96 E.03487
G1 X97.731 Y111.394 E.03551
G1 X97.01 Y110.571 E.03431
G1 X96.639 Y109.503 E.03545
G1 X96.565 Y108.937 E.0179
G1 X96.565 Y101.063 E.24688
G1 X96.639 Y100.497 E.0179
G1 X96.78 Y99.972 E.01704
G1 X97.347 Y98.991 E.03553
G1 X97.682 Y98.656 E.01485
M204 S1000
;WIPE_START
G1 F8640
G1 X97.724 Y98.613 E-.01388
G1 X98.686 Y98.052 E-.25714
G1 X99.208 Y97.907 E-.12509
G1 X99.793 Y97.827 E-.13634
G1 X101.818 Y97.827 E-.46755
;WIPE_END
G1 Z.4 F720
; printing object axle_bracket_orig.stl id:0 copy 0
G1 X134.839 Y109.777 F10800
G1 Z.2 F720
G1 E1 F2100
M204 S800
;TYPE:Support material
G1 F1200
G1 X115.161 Y109.777 E.61699
G1 X115.161 Y100.223 E.29956
G1 X134.839 Y100.223 E.61699
G1 X134.839 Y109.72 E.29777
M204 S1000
G1 X134.839 Y109.72 F10800
G1 X115.331 Y109.19
M204 S800
G1 F1200
G1 X134.499 Y109.19 E.601
G1 X134.499 Y108.771 E.01314
G1 X115.501 Y108.771 E.59567
G1 X115.501 Y108.352 E.01314
G1 X134.499 Y108.352 E.59567
G1 X134.499 Y107.933 E.01314
G1 X115.501 Y107.933 E.59567
G1 X115.501 Y107.514 E.01314
G1 X134.499 Y107.514 E.59567
G1 X134.499 Y107.095 E.01314
G1 X115.501 Y107.095 E.59567
G1 X115.501 Y106.676 E.01314
G1 X134.499 Y106.676 E.59567
G1 X134.499 Y106.257 E.01314
G1 X115.501 Y106.257 E.59567
G1 X115.501 Y105.838 E.01314
G1 X134.499 Y105.838 E.59567
G1 X134.499 Y105.419 E.01314
G1 X115.501 Y105.419 E.59567
G1 X115.501 Y105 E.01314
G1 X134.499 Y105 E.59567
G1 X134.499 Y104.581 E.01314
G1 X115.501 Y104.581 E.59567
G1 X115.501 Y104.162 E.01314
G1 X134.499 Y104.162 E.59567
G1 X134.499 Y103.743 E.01314
G1 X115.501 Y103.743 E.59567
G1 X115.501 Y103.324 E.01314
G1 X134.499 Y103.324 E.59567
G1 X134.499 Y102.905 E.01314
G1 X115.501 Y102.905 E.59567
G1 X115.501 Y102.486 E.01314
G1 X134.499 Y102.486 E.59567
G1 X134.499 Y102.067 E.01314
M73 P1 R57
M73 Q1 S57
G1 X115.501 Y102.067 E.59567
G1 X115.501 Y101.648 E.01314
G1 X134.499 Y101.648 E.59567
G1 X134.499 Y101.229 E.01314
G1 X115.501 Y101.229 E.59567
G1 X115.501 Y100.81 E.01314
G1 X134.669 Y100.81 E.601
M204 S1000
;WIPE_START
G1 F8640
M73 P1 R56
G1 X130.338 Y100.81 E-1
;WIPE_END
G1 Z.4 F720
G1 X147.897 Y103.146 F10800
G1 Z.2 F720
G1 E1 F2100
M204 S800
;TYPE:External perimeter
;WIDTH:0.419999
G1 F1200
G1 X148.274 Y104.013 E.02964
G1 X148.407 Y104.975 E.03045
G1 X148.287 Y105.94 E.03049
G1 X147.921 Y106.84 E.03046
G1 X147.334 Y107.615 E.03048
G1 X146.567 Y108.211 E.03046
G1 X145.672 Y108.589 E.03046
G1 X144.71 Y108.722 E.03045
G1 X143.745 Y108.602 E.03049
G1 X142.845 Y108.236 E.03046
G1 X142.07 Y107.65 E.03046
G1 X141.474 Y106.882 E.03048
G1 X141.096 Y105.987 E.03046
G1 X140.963 Y105.025 E.03045
G1 X141.083 Y104.06 E.03049
G1 X141.449 Y103.16 E.03046
G1 X142.035 Y102.385 E.03046
G1 X142.802 Y101.789 E.03046
G1 X143.698 Y101.411 E.03049
G1 X144.66 Y101.278 E.03045
G1 X145.625 Y101.398 E.03049
G1 X146.525 Y101.764 E.03046
G1 X147.3 Y102.35 E.03046
G1 X147.871 Y103.084 E.02916
G1 X147.873 Y103.091 E.00023
M204 S1000
;WIPE_START
G1 F8640
G1 X147.897 Y103.146 E-.01386
G1 X148.274 Y104.013 E-.2183
G1 X148.407 Y104.975 E-.22424
G1 X148.287 Y105.94 E-.22454
G1 X147.921 Y106.84 E-.22434
G1 X147.674 Y107.167 E-.09472
;WIPE_END
G1 Z.4 F720
G1 X145.718 Y109.085 F10800
G1 Z.2 F720
G1 E1 F2100
M204 S800
;TYPE:Perimeter
;WIDTH:0.649428
G1 F1200
G1 X145.4 Y109.106 E.01607
;WIDTH:0.607622
G1 X145.083 Y109.127 E.01492
;WIDTH:0.565816
G1 X144.766 Y109.148 E.01381
;WIDTH:0.564339
G1 X144.404 Y109.128 E.01572
;WIDTH:0.604668
G1 X144.043 Y109.107 E.01689
;WIDTH:0.644996
G1 X143.681 Y109.087 E.01815
M204 S1000
;WIPE_START
G1 F8640
G1 X144.043 Y109.107 E-.08371
G1 X144.404 Y109.128 E-.0835
G1 X144.766 Y109.148 E-.08371
G1 X145.083 Y109.127 E-.07336
G1 X145.4 Y109.106 E-.07336
G1 X145.718 Y109.085 E-.07359
;WIPE_END
G1 E-.52877 F2100
G1 Z.4 F720
G1 X148.878 Y102.579 F10800
G1 Z.2 F720
G1 E1 F2100
M204 S800
;WIDTH:0.419999
G1 F1200
G1 X148.768 Y102.395 E.00672
G1 X148.09 Y101.554 E.03387
G1 X149.705 Y101.554 E.05064
G1 X149.725 Y103.893 E.07334
;WIDTH:0.380583
G1 X149.74 Y104.539 E.01814
;WIDTH:0.350336
G1 X149.755 Y105.184 E.01649
;WIDTH:0.367039
G1 X149.732 Y105.84 E.01769
;WIDTH:0.413989
G1 X149.708 Y106.497 E.02028
;WIDTH:0.419999
G1 X149.705 Y108.446 E.06111
G1 X148.09 Y108.446 E.05064
G1 X148.232 Y108.303 E.00632
G1 X148.768 Y107.605 E.02759
G1 X148.966 Y107.273 E.01212
G1 X149.316 Y106.419 E.02894
;WIDTH:0.413989
G1 X149.389 Y106.085 E.01055
;WIDTH:0.380583
G1 X149.434 Y105.625 E.01298
;WIDTH:0.350336
G1 X149.479 Y105.166 E.01179
;WIDTH:0.320089
G1 X149.479 Y104.834 E.00765
;WIDTH:0.350336
G1 X149.434 Y104.375 E.01179
;WIDTH:0.380583
G1 X149.389 Y103.915 E.01298
;WIDTH:0.41936
G1 X149.319 Y103.58 E.01071
;WIDTH:0.419999
G1 X148.966 Y102.727 E.02894
G1 X148.909 Y102.631 E.0035
M204 S1000
G1 X148.909 Y102.631 F10800
G1 X148.556 Y102.765
M204 S800
G1 F1200
G1 X148.495 Y102.658 E.00386
G1 X147.933 Y101.926 E.02894
G1 X147.759 Y101.752 E.00772
G1 X147.004 Y101.177 E.02976
G1 X150.038 Y101.177 E.09513
G1 X150.082 Y101.222 E.00197
G1 X150.082 Y108.778 E.23691
G1 X150.043 Y108.823 E.00187
G1 X147.004 Y108.823 E.09529
G1 X147.759 Y108.248 E.02976
G1 X147.933 Y108.074 E.00772
G1 X148.469 Y107.375 E.02762
G1 X148.618 Y107.128 E.00904
G1 X148.971 Y106.276 E.02892
G1 X149.035 Y106.038 E.00773
G1 X149.155 Y105.123 E.02893
G1 X149.155 Y104.877 E.00771
G1 X149.035 Y103.962 E.02893
G1 X148.971 Y103.724 E.00773
G1 X148.618 Y102.872 E.02892
G1 X148.586 Y102.817 E.002
M204 S1000
G1 X148.586 Y102.817 F10800
G1 X148.231 Y102.953
M204 S800
G1 F1200
G1 X148.17 Y102.854 E.00365
G1 X147.529 Y102.051 E.03222
G1 X146.669 Y101.416 E.03352
;WIDTH:0.464998
G1 X146.473 Y101.315 E.00774
;WIDTH:0.509997
G1 X146.277 Y101.214 E.00856
;WIDTH:0.554996
G1 X146.081 Y101.114 E.00937
;WIDTH:0.599995
G1 X145.885 Y101.013 E.01021
;WIDTH:0.644994
G1 X145.688 Y100.913 E.01106
G1 X145.749 Y100.896 E.00317
;WIDTH:0.610932
G1 X145.809 Y100.879 E.00295
;WIDTH:0.576869
G1 X145.869 Y100.862 E.00277
;WIDTH:0.542806
G1 X146.176 Y100.841 E.01279
;WIDTH:0.501871
G1 X146.484 Y100.821 E.01178
;WIDTH:0.460935
G1 X146.792 Y100.8 E.01073
;WIDTH:0.419999
G1 X150.038 Y100.8 E.10178
G1 X150.255 Y100.844 E.00694
G1 X150.4 Y100.946 E.00556
G1 X150.46 Y101.222 E.00886
G1 X150.46 Y108.833 E.23864
G1 X150.357 Y109.098 E.00891
G1 X150.093 Y109.2 E.00887
G1 X146.792 Y109.2 E.1035
;WIDTH:0.467299
G1 X146.484 Y109.176 E.0109
;WIDTH:0.514598
G1 X146.176 Y109.152 E.01212
;WIDTH:0.561897
G1 X145.869 Y109.129 E.01329
;WIDTH:0.605663
G1 X145.793 Y109.107 E.0037
;WIDTH:0.649428
G1 X145.718 Y109.085 E.00394
G1 X145.781 Y109.044 E.00379
;WIDTH:0.605663
G1 X145.844 Y109.003 E.00352
;WIDTH:0.561897
G1 X146.161 Y108.839 E.0154
;WIDTH:0.514598
G1 X146.479 Y108.675 E.01403
;WIDTH:0.467299
G1 X146.797 Y108.511 E.01263
;WIDTH:0.419999
G1 X147.634 Y107.844 E.03356
G1 X148.269 Y106.984 E.03352
G1 X148.661 Y105.989 E.03353
G1 X148.781 Y104.926 E.03354
G1 X148.622 Y103.869 E.03351
G1 X148.269 Y103.016 E.02894
G1 X148.262 Y103.004 E.00044
M204 S1000
;WIPE_START
G1 F8640
G1 X148.231 Y102.953 E-.01378
G1 X148.17 Y102.854 E-.02685
G1 X147.529 Y102.051 E-.23725
G1 X146.669 Y101.416 E-.24684
G1 X146.473 Y101.315 E-.05091
G1 X146.277 Y101.214 E-.05091
G1 X146.081 Y101.114 E-.05081
G1 X145.885 Y101.013 E-.05091
G1 X145.688 Y100.913 E-.05101
G1 X145.749 Y100.896 E-.01462
G1 X145.809 Y100.879 E-.0144
G1 X145.869 Y100.862 E-.0144
G1 X146.176 Y100.841 E-.07105
G1 X146.484 Y100.821 E-.07127
G1 X146.635 Y100.811 E-.03499
;WIPE_END
G1 Z.4 F720
G1 X141.28 Y101.554 F10800
G1 Z.2 F720
G1 E1 F2100
M204 S800
G1 F1200
G1 X141.138 Y101.697 E.00632
G1 X140.576 Y102.429 E.02894
G1 X140.404 Y102.727 E.01079
G1 X140.051 Y103.58 E.02894
G1 X139.962 Y103.913 E.01081
G1 X139.841 Y104.828 E.02894
G1 X139.841 Y105.172 E.01079
G1 X139.962 Y106.087 E.02894
G1 X140.051 Y106.42 E.01081
G1 X140.404 Y107.273 E.02894
G1 X140.576 Y107.571 E.01079
G1 X141.28 Y108.446 E.03521
G1 X137.04 Y108.446 E.13294
G1 X137.04 Y101.554 E.21609
G1 X141.22 Y101.554 E.13106
M204 S1000
;WIPE_START
G1 F8640
G1 X141.28 Y101.554 E-.01385
G1 X141.138 Y101.697 E-.04653
G1 X140.576 Y102.429 E-.21309
G1 X140.404 Y102.727 E-.07945
G1 X140.051 Y103.58 E-.21316
G1 X139.962 Y103.913 E-.07959
G1 X139.841 Y104.828 E-.21312
G1 X139.841 Y105.172 E-.07943
G1 X139.876 Y105.437 E-.06178
;WIPE_END
G1 Z.4 F720
G1 X142.366 Y101.177 F10800
G1 Z.2 F720
G1 E1 F2100
M204 S800
G1 F1200
G1 X141.611 Y101.752 E.02976
G1 X141.437 Y101.926 E.00772
G1 X140.875 Y102.658 E.02894
G1 X140.752 Y102.872 E.00774
G1 X140.399 Y103.724 E.02892
G1 X140.335 Y103.962 E.00773
G1 X140.215 Y104.877 E.02893
G1 X140.215 Y105.123 E.00771
G1 X140.335 Y106.038 E.02893
G1 X140.399 Y106.276 E.00773
G1 X140.752 Y107.128 E.02892
G1 X140.875 Y107.342 E.00774
G1 X141.437 Y108.074 E.02894
G1 X141.611 Y108.248 E.00772
G1 X142.366 Y108.823 E.02976
G1 X136.663 Y108.823 E.17881
G1 X136.663 Y101.177 E.23973
G1 X142.306 Y101.177 E.17693
M204 S1000
;WIPE_START
G1 F8640
G1 X142.366 Y101.177 E-.01385
G1 X141.611 Y101.752 E-.21913
G1 X141.437 Y101.926 E-.05682
G1 X140.875 Y102.658 E-.21309
G1 X140.752 Y102.872 E-.05699
G1 X140.399 Y103.724 E-.21295
G1 X140.335 Y103.962 E-.05691
G1 X140.239 Y104.693 E-.17026
;WIPE_END
G1 Z.4 F720
G1 X143.652 Y100.915 F10800
G1 Z.2 F720
G1 E1 F2100
M204 S800
;WIDTH:0.649426
G1 F1200
G1 X143.589 Y100.956 E.00379
;WIDTH:0.605662
G1 X143.526 Y100.997 E.00352
;WIDTH:0.561897
G1 X143.209 Y101.161 E.0154
;WIDTH:0.514598
G1 X142.891 Y101.325 E.01403
;WIDTH:0.467299
G1 X142.573 Y101.489 E.01263
;WIDTH:0.419999
G1 X141.736 Y102.156 E.03356
G1 X141.101 Y103.016 E.03352
G1 X140.709 Y104.011 E.03353
G1 X140.589 Y105.074 E.03354
G1 X140.747 Y106.131 E.03351
G1 X141.174 Y107.112 E.03355
G1 X141.841 Y107.949 E.03356
G1 X142.701 Y108.584 E.03352
;WIDTH:0.464999
G1 X142.897 Y108.685 E.00774
;WIDTH:0.509998
G1 X143.093 Y108.786 E.00856
;WIDTH:0.554998
G1 X143.289 Y108.886 E.00937
;WIDTH:0.599997
G1 X143.485 Y108.987 E.01021
;WIDTH:0.644996
G1 X143.681 Y109.087 E.01102
G1 X143.621 Y109.104 E.00312
;WIDTH:0.610933
G1 X143.561 Y109.121 E.00295
;WIDTH:0.57687
G1 X143.501 Y109.138 E.00277
;WIDTH:0.542806
G1 X143.194 Y109.159 E.01279
;WIDTH:0.501871
G1 X142.886 Y109.179 E.01178
;WIDTH:0.460935
G1 X142.578 Y109.2 E.01073
;WIDTH:0.419999
G1 X136.286 Y109.2 E.19728
G1 X136.286 Y100.8 E.26338
G1 X142.578 Y100.8 E.19728
;WIDTH:0.467299
G1 X142.886 Y100.824 E.0109
;WIDTH:0.514598
G1 X143.194 Y100.848 E.01212
;WIDTH:0.561897
G1 X143.501 Y100.871 E.01329
;WIDTH:0.605662
G1 X143.577 Y100.893 E.0037
;WIDTH:0.649426
G1 X143.595 Y100.898 E.00094
M204 S1000
G1 X143.595 Y100.898 F10800
G1 X143.652 Y100.915
M204 S800
G1 F1200
G1 X143.97 Y100.894 E.01607
;WIDTH:0.607621
G1 X144.287 Y100.873 E.01492
;WIDTH:0.565816
G1 X144.604 Y100.852 E.01381
;WIDTH:0.564338
G1 X144.966 Y100.872 E.01572
;WIDTH:0.604666
G1 X145.327 Y100.893 E.01689
;WIDTH:0.644994
G1 X145.688 Y100.913 E.0181
M204 S1000
;WIPE_START
G1 F8640
G1 X145.327 Y100.893 E-.08348
G1 X144.966 Y100.872 E-.0835
G1 X144.604 Y100.852 E-.08371
G1 X144.287 Y100.873 E-.07336
G1 X143.97 Y100.894 E-.07336
G1 X143.652 Y100.915 E-.07359
;WIPE_END
G1 E-.529 F2100
G1 Z.4 F720
G1 X135.909 Y100.423 F10800
G1 Z.2 F720
G1 E1 F2100
M204 S800
;TYPE:External perimeter
;WIDTH:0.419999
G1 F1200
G1 X150.038 Y100.423 E.443
G1 X150.509 Y100.521 E.01508
G1 X150.738 Y100.75 E.01015
G1 X150.837 Y101.222 E.01512
G1 X150.837 Y108.778 E.23691
G1 X150.738 Y109.25 E.01512
G1 X150.509 Y109.479 E.01015
G1 X150.143 Y109.577 E.01188
G1 X135.909 Y109.577 E.4463
G1 X135.909 Y100.483 E.28514
M204 S1000
;WIPE_START
G1 F8640
G1 X135.909 Y100.423 E-.01385
G1 X140.18 Y100.423 E-.98615
;WIPE_END
G1 Z.4 F720
G1 X140.573 Y102.154 F10800
G1 Z.2 F720
G1 E1 F2100
M204 S800
;TYPE:Solid infill
;WIDTH:0.427741
G1 F1200
G1 X140.313 Y101.894 E.01177
G1 X139.769 Y101.894 E.01741
G1 X140.229 Y102.354 E.02082
G1 X140.043 Y102.712 E.01291
G1 X139.225 Y101.894 E.03702
G1 X138.681 Y101.894 E.01741
G1 X139.884 Y103.097 E.05444
G1 X139.725 Y103.482 E.01333
G1 X138.137 Y101.894 E.07186
G1 X137.592 Y101.894 E.01744
G1 X139.619 Y103.92 E.0917
G1 X139.561 Y104.406 E.01566
G1 X137.379 Y102.225 E.09872
G1 X137.379 Y102.769 E.01741
G1 X139.502 Y104.892 E.09607
G1 X139.489 Y105 E.00348
G1 X139.547 Y105.481 E.0155
G1 X137.379 Y103.313 E.09811
G1 X137.379 Y103.858 E.01744
G1 X139.621 Y106.099 E.10143
G1 X139.711 Y106.482 E.01259
G1 X139.887 Y106.909 E.01478
G1 X137.379 Y104.402 E.11347
G1 X137.379 Y104.946 E.01741
G1 X140.54 Y108.106 E.14302
G1 X139.995 Y108.106 E.01744
G1 X137.379 Y105.49 E.11838
G1 X137.379 Y106.034 E.01741
G1 X139.451 Y108.106 E.09376
G1 X138.907 Y108.106 E.01741
G1 X137.379 Y106.579 E.06912
G1 X137.379 Y107.123 E.01741
G1 X138.363 Y108.106 E.04451
G1 X137.818 Y108.106 E.01744
G1 X137.21 Y107.497 E.02754
M204 S1000
;WIPE_START
G1 F8640
G1 X137.818 Y108.106 E-.1987
G1 X138.363 Y108.106 E-.12584
G1 X137.379 Y107.123 E-.32116
G1 X137.379 Y106.579 E-.12561
G1 X138.08 Y107.279 E-.22869
;WIPE_END
G1 Z.4 F720
G1 X149.537 Y107.801 F10800
G1 Z.2 F720
G1 E1 F2100
M204 S800
;WIDTH:0.495415
G1 F1200
G1 X149.229 Y107.493 E.01639
G1 X149.069 Y107.77 E.01204
G1 X148.981 Y107.884 E.00542
G1 X149.373 Y108.276 E.02086
M204 S1000
;WIPE_START
G1 F8640
G1 X148.981 Y107.884 E-.12801
G1 X149.069 Y107.77 E-.03325
G1 X149.229 Y107.493 E-.07386
G1 X149.537 Y107.801 E-.10058
;WIPE_END
G1 E-.6643 F2100
G1 Z.4 F720
G1 X149.536 Y102.54 F10800
G1 Z.2 F720
G1 E1 F2100
M204 S800
;WIDTH:0.445156
G1 F1200
G1 X148.72 Y101.724 E.0386
M204 S1000
;WIPE_START
G1 F8640
G1 X149.536 Y102.54 E-.26646
;WIPE_END
G1 E-.73354 F2100
G1 Z.4 F720
G1 X104.353 Y101.407 F10800
G1 Z.2 F720
M73 Q1 S56
G1 E1 F2100
M204 S800
;TYPE:External perimeter
;WIDTH:0.419999
G1 F1200
G1 X105.29 Y101.278 E.02966
G1 X106.255 Y101.398 E.03049
G1 X107.155 Y101.764 E.03046
