; generated by PrusaSlicer 2.8.0+win64 on 2024-09-19 at 12:52:54 UTC


;
;
; 

; external perimeters extrusion width = 0.45mm
; perimeters extrusion width = 0.45mm
; infill extrusion width = 0.45mm
; solid infill extrusion width = 0.45mm
; top infill extrusion width = 0.40mm
; support material extrusion width = 0.35mm
; first layer extrusion width = 0.42mm

M73 P0 R57
M73 Q0 S58
M201 X1000 Y1000 Z200 E5000 ; sets maximum accelerations, mm/sec^2
M203 X200 Y200 Z12 E120 ; sets maximum feedrates, mm / sec
M204 S1250 T1250 ; sets acceleration (S) and retract acceleration (R), mm/sec^2
M205 X8.00 Y8.00 Z0.40 E4.50 ; sets the jerk limits, mm/sec
M205 S0 T0 ; sets the minimum extruding and travel feed rate, mm/sec

; printing object GE_jet_engine_bracket_orig.STL id:0 copy 0
; stop printing object GE_jet_engine_bracket_orig.STL id:0 copy 0

;TYPE:Custom
M862.3 P "MK3S" ; printer model check
M862.1 P0.4 ; nozzle diameter check
M115 U3.14.0 ; tell printer latest fw version
G90 ; use absolute coordinates
M83 ; extruder relative mode
M104 S230 ; set extruder temp
M140 S85 ; set bed temp
M190 S85 ; wait for bed temp
M109 S230 ; wait for extruder temp
G28 W ; home all without mesh bed level
G80 X88.7945 Y81.9202 W72.4109 H44.9907 ; mesh bed levelling

G1 Z0.2 F720
G1 Y-3 F1000 ; go outside print area
G92 E0
G1 X60 E9 F1000 ; intro line
G1 X100 E12.5 F1000 ; intro line

G92 E0
M221 S95

; Don't change E values below. Excessive value can damage the printer.
M907 E430 ; set extruder motor current
G21 ; set units to millimeters
G90 ; use absolute coordinates
M83 ; use relative distances for extrusion

M900 K0.08 ; Filament gcode LA 1.5
M900 K45 ; Filament gcode LA 1.0




M107
;LAYER_CHANGE
;Z:0.2
;HEIGHT:0.2
G1 E-1 F2100
G1 Z.4 F720
G1 X91.13 Y91.107 F10800
G1 Z.2 F720
G1 E1 F2100
M204 S800
;TYPE:Skirt/Brim
;WIDTH:0.42
G1 F1200
G1 X92.355 Y90.25 E.04688
G1 X93.38 Y89.809 E.03499
G1 X94.385 Y89.561 E.03246
G1 X153.975 Y82.126 E1.88289
G1 X155.361 Y82.142 E.04346
G1 X156.454 Y82.368 E.035
G1 X157.49 Y82.781 E.03497
G1 X158.439 Y83.367 E.03497
G1 X159.272 Y84.109 E.03498
G1 X159.963 Y84.985 E.03498
G1 X160.492 Y85.967 E.03497
G1 X160.842 Y87.026 E.03497
G1 X161.003 Y88.129 E.03495
G1 X160.972 Y110.058 E.68757
G1 X160.629 Y111.513 E.04687
G1 X160.338 Y112.188 E.02305
G1 X159.755 Y113.139 E.03498
G1 X158.73 Y114.228 E.04689
G1 X157.817 Y114.868 E.03496
G1 X157.087 Y115.234 E.0256
G1 X132.434 Y126.524 E.85018
G1 X131.522 Y126.722 E.02926
G1 X118.48 Y126.722 E.40892
G1 X117.693 Y126.576 E.0251
G1 X92.527 Y116.85 E.84594
G1 X91.577 Y116.267 E.03495
G1 X90.742 Y115.527 E.03498
G1 X90.048 Y114.653 E.03499
G1 X89.517 Y113.672 E.03498
G1 X89.164 Y112.614 E.03497
G1 X88.985 Y111.254 E.04301
G1 X88.983 Y95.885 E.48188
G1 X89.055 Y94.962 E.02903
M73 Q0 S57
G1 X89.442 Y93.518 E.04687
G1 X89.753 Y92.852 E.02305
G1 X90.354 Y91.935 E.03438
G1 X91.089 Y91.151 E.0337
M204 S1000
;WIPE_START
G1 F8640
G1 X91.13 Y91.107 E-.01389
G1 X92.355 Y90.25 E-.3452
G1 X93.38 Y89.809 E-.25765
G1 X94.385 Y89.561 E-.23902
G1 X95.005 Y89.484 E-.14424
;WIPE_END
G1 Z.4 F720
; printing object GE_jet_engine_bracket_orig.STL id:0 copy 0
G1 X144.841 Y115.938 F10800
G1 Z.2 F720
G1 E1 F2100
M204 S800
;TYPE:Support material interface
;WIDTH:0.35
G1 F1200
G1 X145.173 Y116.965 E.02756
G1 X146.007 Y116.764 E.0219
G1 X144.678 Y115.436 E.04797
G1 X144.802 Y115.818 E.01025
M204 S1000
;WIPE_START
G1 F8640
G1 X144.678 Y115.436 E-.09274
G1 X146.007 Y116.764 E-.43382
G1 X145.173 Y116.965 E-.19809
G1 X144.841 Y115.938 E-.24922
;WIPE_END
G1 E-.02613 F2100
G1 Z.4 F720
G1 X143.952 Y113.137 F10800
G1 Z.2 F720
G1 E1 F2100
M204 S800
G1 F1200
G1 X143.827 Y112.736 E.01072
G1 X147.466 Y116.375 E.13141
G1 X147.609 Y116.332 E.00381
G1 X146.724 Y113.785 E.06885
G1 X142.981 Y110.042 E.13516
G1 X142.885 Y109.749 E.00787
G1 X144.048 Y109.26 E.03221
G1 X145.74 Y110.952 E.0611
G1 X146.54 Y113.254 E.06223
M204 S1000
;WIPE_START
G1 F8640
G1 X145.74 Y110.952 E-.56272
G1 X144.401 Y109.613 E-.43728
;WIPE_END
G1 Z.4 F720
G1 X145.552 Y110.417 F10800
G1 Z.2 F720
G1 E1 F2100
M204 S800
G1 F1200
G1 X144.996 Y108.841 E.04267
G1 X144.188 Y109.198 E.02256
M204 S1000
;WIPE_START
G1 F8640
G1 X144.996 Y108.841 E-.20397
G1 X145.552 Y110.417 E-.38588
;WIPE_END
G1 E-.41015 F2100
G1 Z.4 F720
G1 X152.777 Y95.593 F10800
G1 Z.2 F720
G1 E1 F2100
M204 S800
G1 F1200
G1 X153.188 Y95.297 E.01293
G1 X153.12 Y95.207 E.00288
G1 X147.723 Y89.669 E.19745
G1 X147.187 Y90.217 E.01957
G1 X152.652 Y95.683 E.19736
G1 X151.577 Y96.456 E.03381
G1 X146.274 Y91.153 E.19149
G1 X146.109 Y91.323 E.00605
G1 X146.995 Y92.445 E.0365
G1 X149.005 Y94.456 E.0726
G1 X149.58 Y95.21 E.02421
G1 X150.613 Y96.25 E.03743
G1 X151.056 Y96.831 E.01866
G1 X151.453 Y96.546 E.01248
M204 S1000
;WIPE_START
G1 F8640
G1 X151.056 Y96.831 E-.11284
G1 X150.613 Y96.25 E-.1687
G1 X149.58 Y95.21 E-.33847
G1 X149.005 Y94.456 E-.21895
G1 X148.512 Y93.963 E-.16104
;WIPE_END
G1 Z.4 F720
G1 X145.939 Y91.668 F10800
G1 Z.2 F720
G1 E1 F2100
M204 S800
;TYPE:Support material
;WIDTH:0.42
G1 F1200
G1 X146.729 Y92.694 E.0406
G1 X148.739 Y94.704 E.08913
G1 X149.298 Y95.44 E.02898
G1 X150.347 Y96.498 E.04671
G1 X150.727 Y96.998 E.01969
G1 X134.224 Y108.867 E.63737
G1 X134.091 Y109.294 E.01402
G1 X135.021 Y111.899 E.08673
G1 X135.395 Y112.145 E.01404
G1 X137.363 Y111.988 E.0619
G1 X138.752 Y111.531 E.04585
G1 X142.569 Y109.951 E.12953
G1 X144.794 Y116.974 E.23099
G1 X143.03 Y117.299 E.05624
G1 X140.086 Y117.64 E.09292
G1 X136.034 Y117.873 E.12726
G1 X135.635 Y117.807 E.01268
G1 X134.976 Y117.886 E.02081
G1 X134.224 Y117.781 E.02381
G1 X133.029 Y118.346 E.04145
G1 X132.571 Y119.098 E.02761
G1 X131.957 Y119.773 E.02861
G1 X131.612 Y120.641 E.02929
G1 X131.524 Y121.453 E.02561
G1 X131.522 Y124.534 E.0966
G1 X129.402 Y124.534 E.06647
G1 X129.339 Y123.721 E.02557
G1 X129.13 Y122.687 E.03308
G1 X128.824 Y121.784 E.02989
G1 X128.496 Y121.164 E.02199
G1 X127.986 Y120.432 E.02797
G1 X127.386 Y119.863 E.02593
G1 X126.779 Y119.465 E.02276
G1 X126.137 Y119.172 E.02213
G1 X125.577 Y119.064 E.01788
G1 X124.352 Y119.041 E.03842
G1 X123.777 Y119.199 E.0187
G1 X122.8 Y119.729 E.03485
G1 X121.967 Y120.487 E.03531
G1 X121.227 Y121.685 E.04415
G1 X120.809 Y122.934 E.0413
G1 X120.601 Y124.534 E.05059
G1 X118.48 Y124.534 E.0665
G1 X118.48 Y121.394 E.09845
G1 X118.391 Y120.654 E.02337
G1 X117.974 Y119.72 E.03207
G1 X117.445 Y119.146 E.02447
G1 X116.98 Y118.398 E.02762
G1 X115.718 Y117.847 E.04318
G1 X115.044 Y117.978 E.02153
G1 X114.381 Y117.936 E.02083
G1 X114.011 Y118.021 E.0119
G1 X109.476 Y118.135 E.14224
G1 X107.79 Y118.132 E.05286
G1 X105.437 Y117.98 E.07393
G1 X107.313 Y110.84 E.23147
G1 X109.947 Y111.564 E.08565
G1 X110.362 Y111.34 E.01479
G1 X111.478 Y108.086 E.10786
G1 X111.288 Y107.655 E.01477
G1 X100.768 Y103.083 E.35965
G1 X102.192 Y100.295 E.09816
G1 X103.617 Y97.828 E.08933
G1 X104.194 Y96.64 E.04141
G1 X116.726 Y105.054 E.47328
G1 X117.832 Y105.163 E.03485
G1 X118.31 Y104.964 E.01623
G1 X131.72 Y104.963 E.42046
G1 X132.186 Y105.019 E.01472
G1 X133.159 Y104.676 E.03235
G1 X145.899 Y91.628 E.57178
M204 S1000
G1 X145.899 Y91.628 F10800
G1 X118.649 Y123.854
M204 S800
G1 F1200
G1 X120.309 Y123.854 E.05205
G1 X120.37 Y123.435 E.01328
G1 X118.819 Y123.435 E.04863
G1 X118.819 Y123.016 E.01314
G1 X120.448 Y123.016 E.05108
G1 X120.545 Y122.597 E.01348
G1 X118.819 Y122.597 E.05412
G1 X118.819 Y122.178 E.01314
G1 X120.669 Y122.178 E.05801
G1 X120.826 Y121.759 E.01403
G1 X118.819 Y121.759 E.06293
G1 X118.817 Y121.34 E.01314
G1 X121.015 Y121.34 E.06892
G1 X121.254 Y120.921 E.01512
G1 X118.783 Y120.921 E.07748
G1 X118.698 Y120.502 E.01341
G1 X121.52 Y120.502 E.08848
G1 X121.885 Y120.083 E.01742
G1 X118.557 Y120.083 E.10435
G1 X118.337 Y119.664 E.01484
G1 X122.339 Y119.664 E.12548
G1 X122.94 Y119.245 E.02297
G1 X118.032 Y119.245 E.15389
G1 X117.645 Y118.826 E.01788
M73 Q1 S57
G1 X132.338 Y118.826 E.46069
G1 X132.594 Y118.407 E.0154
M73 P1 R57
G1 X117.385 Y118.407 E.47687
G1 X117.213 Y118.129 E.01025
G1 X116.89 Y117.988 E.01105
G1 X132.991 Y117.988 E.50484
G1 X133.877 Y117.569 E.03073
G1 X105.894 Y117.569 E.87739
G1 X106.003 Y117.15 E.01357
G1 X141.308 Y117.15 E1.10696
G1 X144.343 Y116.731 E.09606
G1 X106.111 Y116.731 E1.19874
G1 X106.219 Y116.312 E.01357
G1 X144.223 Y116.312 E1.19159
G1 X144.088 Y115.893 E.0138
G1 X106.328 Y115.893 E1.18394
G1 X106.438 Y115.474 E.01358
G1 X143.952 Y115.474 E1.17623
G1 X143.816 Y115.055 E.01381
G1 X106.549 Y115.055 E1.16848
G1 X106.66 Y114.636 E.01359
G1 X143.685 Y114.636 E1.16089
G1 X143.554 Y114.217 E.01376
M73 P1 R56
G1 X106.771 Y114.217 E1.15331
G1 X106.882 Y113.799 E.01356
G1 X143.423 Y113.799 E1.14572
G1 X143.291 Y113.38 E.01377
G1 X106.992 Y113.38 E1.13813
G1 X107.103 Y112.961 E.01359
G1 X143.16 Y112.961 E1.13054
G1 X143.029 Y112.542 E.01376
G1 X107.216 Y112.542 E1.12289
G1 X107.332 Y112.123 E.01363
G1 X134.744 Y112.123 E.85948
G1 X134.591 Y111.704 E.01399
G1 X110.403 Y111.704 E.7584
G1 X110.64 Y111.576 E.00845
G1 X110.74 Y111.285 E.00965
G1 X134.441 Y111.285 E.74313
G1 X134.292 Y110.866 E.01394
G1 X110.884 Y110.866 E.73394
G1 X111.027 Y110.447 E.01388
G1 X134.142 Y110.447 E.72475
G1 X133.993 Y110.028 E.01394
G1 X111.171 Y110.028 E.71557
G1 X111.315 Y109.609 E.01389
G1 X133.843 Y109.609 E.70635
G1 X133.733 Y109.301 E.01025
M73 P2 R56
M73 Q2 S57
G1 X133.768 Y109.19 E.00365
G1 X111.458 Y109.19 E.69951
G1 X111.602 Y108.771 E.01389
G1 X133.899 Y108.771 E.69911
G1 X133.934 Y108.658 E.00371
G1 X134.359 Y108.352 E.01642
G1 X111.746 Y108.352 E.70901
G1 X111.842 Y108.071 E.00931
G1 X111.781 Y107.933 E.00473
G1 X134.942 Y107.933 E.7262
G1 X135.524 Y107.514 E.02249
G1 X111.597 Y107.514 E.75021
G1 X111.545 Y107.396 E.00404
G1 X110.851 Y107.095 E.02372
G1 X136.107 Y107.095 E.79188
G1 X136.689 Y106.676 E.02249
M73 Q2 S56
G1 X109.887 Y106.676 E.84036
G1 X108.923 Y106.257 E.03296
G1 X137.272 Y106.257 E.88886
G1 X137.854 Y105.838 E.02249
G1 X107.959 Y105.838 E.93734
G1 X106.994 Y105.419 E.03299
G1 X138.437 Y105.419 E.98587
G1 X139.02 Y105 E.02251
G1 X133.259 Y105 E.18063
G1 X133.726 Y104.581 E.01967
G1 X139.602 Y104.581 E.18424
G1 X140.185 Y104.162 E.02251
G1 X134.134 Y104.162 E.18972
G1 X134.543 Y103.743 E.01836
G1 X140.767 Y103.743 E.19515
G1 X141.35 Y103.324 E.02251
G1 X134.96 Y103.324 E.20035
G1 X135.371 Y102.905 E.0184
G1 X141.932 Y102.905 E.20572
G1 X142.515 Y102.486 E.02251
G1 X135.779 Y102.486 E.2112
G1 X136.185 Y102.067 E.01829
G1 X143.097 Y102.067 E.21672
G1 X143.68 Y101.648 E.02251
G1 X136.587 Y101.648 E.2224
G1 X136.996 Y101.229 E.01836
G1 X144.262 Y101.229 E.22782
G1 X144.845 Y100.81 E.02251
G1 X137.405 Y100.81 E.23328
G1 X137.814 Y100.391 E.01836
G1 X145.428 Y100.391 E.23873
G1 X146.01 Y99.972 E.02249
G1 X138.222 Y99.972 E.24419
G1 X138.631 Y99.553 E.01836
G1 X146.593 Y99.553 E.24964
G1 X147.175 Y99.134 E.02249
G1 X139.04 Y99.134 E.25507
G1 X139.449 Y98.715 E.01836
G1 X147.758 Y98.715 E.26052
G1 X148.34 Y98.296 E.02249
G1 X139.858 Y98.296 E.26595
G1 X140.266 Y97.877 E.01834
G1 X148.923 Y97.877 E.27143
G1 X149.505 Y97.458 E.02249
G1 X140.675 Y97.458 E.27686
G1 X141.084 Y97.039 E.01836
G1 X150.088 Y97.039 E.28231
G1 X150.246 Y96.926 E.00609
G1 X149.989 Y96.62 E.01253
G1 X141.493 Y96.62 E.26639
G1 X141.901 Y96.201 E.01834
G1 X149.57 Y96.201 E.24046
G1 X149.151 Y95.783 E.01856
G1 X142.31 Y95.783 E.21449
G1 X142.719 Y95.364 E.01836
G1 X148.815 Y95.364 E.19114
G1 X148.497 Y94.945 E.01649
G1 X143.128 Y94.945 E.16834
G1 X143.537 Y94.526 E.01836
G1 X148.081 Y94.526 E.14247
G1 X147.662 Y94.107 E.01858
G1 X143.945 Y94.107 E.11654
G1 X144.354 Y93.688 E.01836
G1 X147.243 Y93.688 E.09058
G1 X146.824 Y93.269 E.01858
G1 X144.763 Y93.269 E.06462
G1 X145.172 Y92.85 E.01836
G1 X146.415 Y92.85 E.03897
G1 X146.094 Y92.431 E.01655
G1 X145.344 Y92.431 E.02352
M204 S1000
;WIPE_START
G1 F8640
G1 X146.094 Y92.431 E-.17318
G1 X146.415 Y92.85 E-.12188
G1 X145.172 Y92.85 E-.28701
G1 X144.763 Y93.269 E-.1352
G1 X145.987 Y93.269 E-.28273
;WIPE_END
G1 Z.4 F720
G1 X129.524 Y123.854 F10800
G1 Z.2 F720
G1 E1 F2100
M204 S800
G1 F1200
G1 X131.183 Y123.854 E.05202
G1 X131.183 Y123.435 E.01314
G1 X129.626 Y123.435 E.04882
G1 X129.558 Y123.016 E.01331
G1 X131.183 Y123.016 E.05095
G1 X131.183 Y122.597 E.01314
G1 X129.458 Y122.597 E.05409
G1 X129.333 Y122.178 E.01371
G1 X131.184 Y122.178 E.05804
G1 X131.184 Y121.759 E.01314
G1 X129.177 Y121.759 E.06293
G1 X128.985 Y121.34 E.01445
G1 X131.188 Y121.34 E.06907
G1 X131.217 Y120.921 E.01317
G1 X128.746 Y120.921 E.07748
G1 X128.478 Y120.502 E.01559
G1 X131.3 Y120.502 E.08848
G1 X131.437 Y120.083 E.01382
G1 X128.124 Y120.083 E.10388
G1 X127.671 Y119.664 E.01935
G1 X131.63 Y119.664 E.12413
G1 X131.926 Y119.245 E.01608
G1 X126.715 Y119.245 E.16339
M204 S1000
G1 X126.715 Y119.245 F10800
G1 X137.497 Y112.123
M204 S800
G1 F1200
G1 X142.898 Y112.123 E.16934
G1 X142.767 Y111.704 E.01376
G1 X139.222 Y111.704 E.11115
G1 X140.273 Y111.285 E.03548
G1 X142.637 Y111.285 E.07412
G1 X142.507 Y110.866 E.01376
G1 X141.285 Y110.866 E.03831
G1 X142.285 Y110.447 E.034
G1 X142.552 Y110.447 E.00837
M204 S1000
;WIPE_START
G1 F8640
G1 X142.285 Y110.447 E-.06165
G1 X141.285 Y110.866 E-.25035
G1 X142.507 Y110.866 E-.28216
G1 X142.637 Y111.285 E-.1013
G1 X141.318 Y111.285 E-.30454
;WIPE_END
G1 Z.4 F720
G1 X107.27 Y111.704 F10800
G1 Z.2 F720
G1 E1 F2100
M204 S800
G1 F1200
G1 X109.126 Y111.704 E.05819
G1 X107.376 Y111.285 E.05642
M204 S1000
;WIPE_START
G1 F8640
G1 X109.126 Y111.704 E-.4155
G1 X107.27 Y111.704 E-.42856
;WIPE_END
G1 E-.15594 F2100
G1 Z.4 F720
G1 X105.604 Y105 F10800
G1 Z.2 F720
G1 E1 F2100
M204 S800
G1 F1200
G1 X116.037 Y105 E.32712
G1 X115.413 Y104.581 E.02357
G1 X105.066 Y104.581 E.32442
G1 X104.102 Y104.162 E.03296
G1 X114.789 Y104.162 E.33508
G1 X114.165 Y103.743 E.02357
G1 X103.138 Y103.743 E.34574
G1 X102.174 Y103.324 E.03296
G1 X113.541 Y103.324 E.3564
G1 X112.917 Y102.905 E.02357
G1 X101.223 Y102.905 E.36666
G1 X101.429 Y102.486 E.01464
G1 X112.293 Y102.486 E.34063
G1 X111.669 Y102.067 E.02357
G1 X101.671 Y102.067 E.31348
G1 X101.912 Y101.648 E.01516
M73 P3 R56
G1 X111.045 Y101.648 E.28636
G1 X110.421 Y101.229 E.02357
M73 Q3 S56
G1 X102.138 Y101.229 E.25971
G1 X102.33 Y100.81 E.01445
G1 X109.797 Y100.81 E.23412
G1 X109.173 Y100.391 E.02357
G1 X102.529 Y100.391 E.20832
G1 X102.77 Y99.972 E.01516
G1 X108.549 Y99.972 E.1812
G1 X107.925 Y99.553 E.02357
G1 X103.012 Y99.553 E.15404
G1 X103.254 Y99.134 E.01517
G1 X107.301 Y99.134 E.12689
G1 X106.677 Y98.715 E.02357
G1 X103.496 Y98.715 E.09974
G1 X103.738 Y98.296 E.01517
G1 X106.053 Y98.296 E.07259
G1 X105.429 Y97.877 E.02357
G1 X103.971 Y97.877 E.04571
G1 X104.163 Y97.458 E.01445
G1 X105.109 Y97.458 E.02966
M204 S1000
;WIPE_START
G1 F8640
G1 X104.163 Y97.458 E-.21843
G1 X103.971 Y97.877 E-.10642
G1 X105.429 Y97.877 E-.33666
G1 X106.053 Y98.296 E-.17355
G1 X105.339 Y98.296 E-.16494
;WIPE_END
G1 Z.4 F720
G1 X102.484 Y95.423 F10800
G1 Z.2 F720
G1 E1 F2100
M204 S800
;TYPE:Support material interface
;WIDTH:0.35
G1 F1200
G1 X103.747 Y96.686 E.04561
G1 X103.139 Y97.927 E.03529
G1 X101.583 Y96.371 E.05619
G1 X100.907 Y97.543 E.03455
G1 X102.463 Y99.099 E.05619
G1 X101.798 Y100.283 E.03467
G1 X100.23 Y98.715 E.05662
G1 X99.564 Y99.898 E.03466
G1 X101.179 Y101.512 E.0583
G1 X100.536 Y102.717 E.03487
G1 X98.9 Y101.082 E.05906
G1 X98.335 Y102.088 E.02946
G1 X100.411 Y102.99 E.0578
G1 X100.472 Y102.857 E.00374
M204 S1000
;WIPE_START
G1 F8640
G1 X100.411 Y102.99 E-.03379
G1 X98.335 Y102.088 E-.52265
G1 X98.9 Y101.082 E-.26642
G1 X99.442 Y101.624 E-.17714
;WIPE_END
G1 Z.4 F720
G1 X106.95 Y110.794 F10800
G1 Z.2 F720
G1 E1 F2100
M204 S800
G1 F1200
G1 X106.98 Y110.672 E.00321
G1 X106.498 Y110.528 E.01284
G1 X106.912 Y110.942 E.01495
G1 X106.525 Y112.403 E.03859
G1 X104.66 Y110.539 E.06733
G1 X104.239 Y111.966 E.03799
G1 X106.137 Y113.864 E.06854
G1 X105.75 Y115.326 E.03862
G1 X103.829 Y113.405 E.06937
G1 X103.419 Y114.843 E.03818
G1 X105.369 Y116.793 E.07041
G1 X105.054 Y118.009 E.03207
G1 X104.675 Y117.948 E.0098
G1 X103.008 Y116.281 E.0602
G1 X102.632 Y117.6 E.03502
G1 X104.523 Y117.929 E.04901
M204 S1000
;WIPE_START
G1 F8640
